X:17
T:GB/7b/17 Flora and Henry
%%VWML:GB-7b-17-0
F:http://www.vwml.org/record/GB/7b/17
C:Transcribed by Simon Furey and Lewis Jones
L:1/4
M:3/4
I:linebreak $
K:G
D | G B d | g f g | e c A | G F G | A A B | c d e | A B c | d2 f/g/ |$ a f e | e !fermata!A g/f/ | e c A | G !fermata!F G/B/ | d B/c/ d | e/f/ g d | e/c/ B A | G2 |]

